!!!COM:	Du Fay, Guillaume
!!!CDT:	~1397/08/05/-1474/11/27
!!!OPR:	Missa L'homme arm&eacute;
!!!ONM:	2
!!!OTL:	Gloria
!!!AGN:	Mass; Gloria
!!!SCT:	Duf1004b
!!!SCA:	Duf1004b
!!!voices:	4
!!!voices-OPR:	4
!!midi-transpose: -2
**kern	**text	**kern	**text	**kern	**text	**kern	**text
*staff4	*staff4	*staff3	*staff3	*staff2	*staff2	*staff1	*staff1
*Ivox	*	*Ivox	*	*Ivox	*	*Ivox	*
*I"Bassus	*	*I"Tenor	*	*I"Contra	*	*I"Cantus	*
*I'B	*	*I'T	*	*I'C	*	*I'Cn	*
*>[A,B]	*>[A,B]	*>[A,B]	*>[A,B]	*>[A,B]	*>[A,B]	*>[A,B]	*>[A,B]
*>A	*>A	*>A	*>A	*>A	*>A	*>A	*>A
*clefF4	*	*clefGv2	*	*clefGv2	*	*clefG2	*
*k[b-]	*	*k[b-]	*	*k[b-]	*	*k[]	*
*M3/1	*	*M3/1	*	*M3/1	*	*M3/1	*
*met(O)	*	*met(O)	*	*met(O)	*	*met(O)	*
*MM320	*MM320	*MM320	*MM320	*MM320	*MM320	*MM320	*MM320
!!section: Et in terra pax
!!!OMD: Et in terra pax
=1-	=1-	=1-	=1-	=1-	=1-	=1-	=1-
0.r	.	0.r	.	0G	Et	1.g	Et
.	.	.	.	.	.	2a/	.
.	.	.	.	1G	in	1b	in
=2	=2	=2	=2	=2	=2	=2	=2
0.r	.	0.r	.	1A	ter-	1cc	ter-
.	.	.	.	0G	.	2b\	.
.	.	.	.	.	.	1dd	.
.	.	.	.	.	.	2cc\	.
=3	=3	=3	=3	=3	=3	=3	=3
0.r	.	0.r	.	1G	.	2b\	.
.	.	.	.	.	.	2g/	.
.	.	.	.	1.F	-ra	1a	.
.	.	.	.	.	.	1a	-ra
.	.	.	.	2E/	.	.	.
=4	=4	=4	=4	=4	=4	=4	=4
0.r	.	0.r	.	0G	pax	1.b	pax
.	.	.	.	.	.	2g/	.
.	.	.	.	1G	ho-	1g	.
=5	=5	=5	=5	=5	=5	=5	=5
0.r	.	0.r	.	1.c	-mi-	1r	.
.	.	.	.	.	.	0cc	ho-
.	.	.	.	2B-\	.	.	.
.	.	.	.	1A	-ni-	.	.
=6	=6	=6	=6	=6	=6	=6	=6
0.r	.	0.r	.	0.G	-bus	1b	-mi-
.	.	.	.	.	.	1.dd	.
.	.	.	.	.	.	2cc\	.
=7	=7	=7	=7	=7	=7	=7	=7
0.r	.	0.r	.	1r	.	1b	.
.	.	.	.	1r	.	1.a	-ni-
.	.	.	.	1f	bo-	.	.
.	.	.	.	.	.	2g/	.
=8	=8	=8	=8	=8	=8	=8	=8
0.r	.	0.r	.	2e\	.	2g/	-bus
.	.	.	.	2.g\	.	2r	.
.	.	.	.	.	.	1dd	bo-
.	.	.	.	4f\	.	.	.
.	.	.	.	2d\	.	.	.
.	.	.	.	2e\	.	2cc\	.
.	.	.	.	2c\	.	2ee\	.
=9	=9	=9	=9	=9	=9	=9	=9
0.r	.	0.r	.	1d	.	2dd\	.
.	.	.	.	.	.	1b	.
.	.	.	.	2g\	.	.	.
.	.	.	.	2f\	.	2a/	.
.	.	.	.	1e	.	2b\	.
.	.	.	.	.	.	2cc\	.
=10	=10	=10	=10	=10	=10	=10	=10
0.r	.	0.r	.	1.d	.	2dd\	.
.	.	.	.	.	.	2.b\	.
.	.	.	.	.	.	4g/	.
.	.	.	.	2B-\	.	1g	.
.	.	.	.	2c\	.	.	.
.	.	.	.	2A/	.	2f/	.
=11	=11	=11	=11	=11	=11	=11	=11
0.r	.	0.r	.	1G	-ne	2g/	.
.	.	.	.	.	.	2e/	.
.	.	.	.	2r	.	1d	-ne
.	.	.	.	2B-\	vo-	.	.
.	.	.	.	2c\	.	2r	.
.	.	.	.	2d\	.	2f/	vo-
=12	=12	=12	=12	=12	=12	=12	=12
0.r	.	0.r	.	2e\	-lun-	2g/	-lun-
.	.	.	.	2.f\	-ta-	1a	-ta-
.	.	.	.	4e\	.	.	.
.	.	.	.	2g\	.	1g	.
.	.	.	.	2e\	.	.	.
.	.	.	.	2c\	.	2cc\	.
=13	=13	=13	=13	=13	=13	=13	=13
0.r	.	0.r	.	2r	.	2b\	.
.	.	.	.	2.G/	.	1dd	.
.	.	.	.	4A/	.	.	.
.	.	.	.	2B-\	.	2g/	.
.	.	.	.	1c	.	4a/	.
.	.	.	.	.	.	4g/	.
.	.	.	.	.	.	4f/	.
.	.	.	.	.	.	4e/	.
=14	=14	=14	=14	=14	=14	=14	=14
0.r	.	0.r	.	2A/	.	2f/	.
.	.	.	.	2B-\	.	2g/	.
.	.	.	.	2A/	.	2a/	.
.	.	.	.	2B-\	.	2d/	.
.	.	.	.	4G/	.	1g	.
.	.	.	.	2B-\	.	.	.
.	.	.	.	4c\	.	.	.
=15	=15	=15	=15	=15	=15	=15	=15
0.r	.	0.r	.	2A/	.	2f/	.
.	.	.	.	2.d\	.	2b-i\	.
.	.	.	.	.	.	2a/	.
.	.	.	.	4c\	.	.	.
.	.	.	.	2B-\	.	1g	.
.	.	.	.	1A	.	.	.
.	.	.	.	.	.	2f#i/	.
=16	=16	=16	=16	=16	=16	=16	=16
0.r	.	0.r	.	0G	-tis.	0g	-tis.
.	.	.	.	2B-\	Lau-	1r	.
.	.	.	.	2c\	.	.	.
=17	=17	=17	=17	=17	=17	=17	=17
0.r	.	[0.G	Be-	1d	-da-	1b	Lau-
.	.	.	.	1e	-mus	1b	-da-
.	.	.	.	1d	te.	1b	-mus
=18	=18	=18	=18	=18	=18	=18	=18
0.d	Be-	0.G]	.	1r	.	0b	te.
.	.	.	.	1g	Be-	.	.
.	.	.	.	1g	-ne-	1g	.
=19	=19	=19	=19	=19	=19	=19	=19
1d	-ne-	0.r	.	2.a\	-di-	2r	.
.	.	.	.	.	.	2dd\	Be-
.	.	.	.	4g\	.	.	.
2c\	.	.	.	2e\	-ci-	2ee\	.
2d\	.	.	.	2f\	.	2.dd\	.
1e	-di-	.	.	1g	-mus	.	.
.	.	.	.	.	.	4b\	.
.	.	.	.	.	.	2cc\	-ne-
=20	=20	=20	=20	=20	=20	=20	=20
0d	-ci-	0.G	-ne-	1r	.	0dd	-di-
.	.	.	.	0g	te.	.	.
1B-	-mus,	.	.	.	.	1dd	-ci-
=21	=21	=21	=21	=21	=21	=21	=21
1.A	te.	[0.c	-di-	0a	Ad-	2cc\	-mus
.	.	.	.	.	.	2dd\	.
.	.	.	.	.	.	1.ee	.
2B-\	.	.	.	.	.	.	.
1c	.	.	.	1g	-o-	.	.
.	.	.	.	.	.	2cc\	.
=22	=22	=22	=22	=22	=22	=22	=22
0F	Ad-	0.c]	.	1a	-ra-	1cc	te.
.	.	.	.	0f	.	2r	.
.	.	.	.	.	.	1a	Ad-
1F	-o-	.	.	.	.	.	.
.	.	.	.	.	.	2b\	.
=23	=23	=23	=23	=23	=23	=23	=23
1A	-ra-	1c	-ci-	2f\	.	1cc	.
.	.	.	.	2e\	.	.	.
1G	-mus	0B-	.	1g	.	1dd	.
1d	.	.	.	2r	.	1g	-o-
.	.	.	.	2d\	.	.	.
=24	=24	=24	=24	=24	=24	=24	=24
1r	.	0.A	-mus	2e\	.	2a/	-ra-
.	.	.	.	2.f\	.	2.cc\	.
1.c	te.	.	.	.	.	.	.
.	.	.	.	4g\	.	4b\	.
.	.	.	.	2a\	.	2cc\	.
.	.	.	.	2e\	-mus	2.a/	-mus
2B-\	.	.	.	2f\	.	.	.
.	.	.	.	.	.	4g/	.
=25	=25	=25	=25	=25	=25	=25	=25
0.d	.	[0.G	te.	1g	te.	0.b	te.
.	.	.	.	1r	.	.	.
.	.	.	.	1r	.	.	.
=26	=26	=26	=26	=26	=26	=26	=26
0.r	.	0.G]	.	0d	Glo-	1r	.
.	.	.	.	.	.	1g	Glo-
.	.	.	.	1B-	.	[1g	-ri-
=27	=27	=27	=27	=27	=27	=27	=27
1.B-	Glo-	0.r	.	0G	-ri-	2g/]	.
.	.	.	.	.	.	2f/	.
.	.	.	.	.	.	2d/	.
2G\	-ri-	.	.	.	.	2e/	.
1A	-fi-	.	.	1c	-fi-	1f	-fi-
=28	=28	=28	=28	=28	=28	=28	=28
1G	-ca-	0.r	.	2.B-\	-ca-	2g/	-ca-
.	.	.	.	.	.	2.e/	.
.	.	.	.	4G/	.	.	.
2F\	.	.	.	2A/	.	.	.
.	.	.	.	.	.	4d/	.
2G\	.	.	.	2B-\	.	1d	.
1E	-mus	.	.	2.G/	-mus	.	.
.	.	.	.	.	.	2c#i/	-mus
.	.	.	.	4F/	.	.	.
=29	=29	=29	=29	=29	=29	=29	=29
0D	te,	0d	Gra-	1A	te,	1d	te.
.	.	.	.	1r	.	2f/	.
.	.	.	.	.	.	2g/	.
1D	glo-	[1d	-ti-	1f	glo-	1a	.
=30	=30	=30	=30	=30	=30	=30	=30
0G	-ri-	1d]	.	2g\	-ri-	2.b-i\	.
.	.	.	.	1d	.	.	.
.	.	.	.	.	.	4g/	.
.	.	0G	-as	.	.	0g	.
.	.	.	.	2d\	-fi-	.	.
1E	-fi-	.	.	2e\	.	.	.
.	.	.	.	2g\	.	.	.
=31	=31	=31	=31	=31	=31	=31	=31
1F	-ca-	0.r	.	2f\	-ca-	0.r	.
.	.	.	.	2a\	.	.	.
0G	-mus	.	.	2.g\	.	.	.
.	.	.	.	8f\L	.	.	.
.	.	.	.	8e\J	.	.	.
.	.	.	.	1d	.	.	.
=32	=32	=32	=32	=32	=32	=32	=32
1G	te.	[0.d	a-	2g\	.	1b	Gra-
.	.	.	.	1f	.	.	.
[0D	.	.	.	.	.	1a	.
.	.	.	.	2f\	.	.	.
.	.	.	.	1g	-mus	[1dd	.
=33	=33	=33	=33	=33	=33	=33	=33
0.D]	.	0.d]	.	1a	te.	2dd\]	.
.	.	.	.	.	.	2cc\	.
.	.	.	.	1f	.	2b\	-ti-
.	.	.	.	.	.	2a/	.
.	.	.	.	1r	.	1a	-as
=34	=34	=34	=34	=34	=34	=34	=34
1r	.	0.d	-gi-	1a	Gra-	2f/	a-
.	.	.	.	.	.	2g/	.
1r	.	.	.	1f	-ti-	1a	.
1G	Gra-	.	.	[1g	-as	2g/	.
.	.	.	.	.	.	[2b\	.
=35	=35	=35	=35	=35	=35	=35	=35
1G	-ti-	1d	-mus	1g]	.	4b\]	.
.	.	.	.	.	.	4a/	.
.	.	.	.	.	.	2b\	.
1A	-as	0c	ti-	1e	a-	2cc\	-gi-
.	.	.	.	.	.	2b\	.
1F	a-	.	.	1f	.	2.a/	-mus
.	.	.	.	.	.	4g/	.
=36	=36	=36	=36	=36	=36	=36	=36
1G	-gi-	1B-	.	0d	.	1.g	ti-
0D	-mus	0A	.	.	.	.	.
.	.	.	.	.	.	2f#i/	.
.	.	.	.	1d	-gi-	2f#i/	.
.	.	.	.	.	.	2e/	.
=37	=37	=37	=37	=37	=37	=37	=37
2r	.	0.G	-bi	0d	-mus	1g	-bi
1B-	ti-	.	.	.	.	.	.
.	.	.	.	.	.	1r	.
2c\	.	.	.	.	.	.	.
1d	.	.	.	[1B-	ti-	1r	.
=38	=38	=38	=38	=38	=38	=38	=38
1G	-bi	0.d	.	1B-]	.	1g	pro-
0D	.	.	.	0A	-bi	2f/	.
.	.	.	.	.	.	2g/	.
.	.	.	.	.	.	1a	.
=39	=39	=39	=39	=39	=39	=39	=39
0.r	.	1d	pro-	0G	pro-	1b-i	.
.	.	2B-\	.	.	.	1g	.
.	.	2c\	.	.	.	.	.
.	.	1d	.	[1B-	-pter	2.f/	.
.	.	.	.	.	.	4e/	.
=40	=40	=40	=40	=40	=40	=40	=40
1d	pro-	0.G	-pter	2B-\]	.	1g	-pter
.	.	.	.	2c\	.	.	.
2B-\	.	.	.	1d	ma-	1r	.
2c\	.	.	.	.	.	.	.
1d	.	.	.	1g	.	2b\	ma-
.	.	.	.	.	.	2cc\	.
=41	=41	=41	=41	=41	=41	=41	=41
0G	-pter	0.r	.	2r	.	1dd	.
.	.	.	.	2d\	.	.	.
.	.	.	.	4e\	.	2b\	.
.	.	.	.	4d\	.	.	.
.	.	.	.	4c\	.	2g/	.
.	.	.	.	4B-\	.	.	.
1F	ma-	.	.	1A	-gnam	1a	-gnam
=42	=42	=42	=42	=42	=42	=42	=42
1G	-gnam	0.r	.	2r	.	1b	glo-
.	.	.	.	2d\	glo-	.	.
0A	glo-	.	.	2c\	.	0cc	.
.	.	.	.	2f\	.	.	.
.	.	.	.	2e\	.	.	.
.	.	.	.	2f\	.	.	.
=43	=43	=43	=43	=43	=43	=43	=43
1G	-ri-	0.r	.	1g	.	1b	-ri-
0c	-am	.	.	1.e	.	1.a	-am
.	.	.	.	2d\	-ri-	2g/	.
=44	=44	=44	=44	=44	=44	=44	=44
1B-	tu-	0.r	.	1d	-am	1g	tu-
0A	.	.	.	2e\	tu-	2a/	.
.	.	.	.	1c	.	2e/	.
.	.	.	.	.	.	2f#i/	.
.	.	.	.	2B-\	.	4e/	.
.	.	.	.	.	.	4f#i/	.
=45	=45	=45	=45	=45	=45	=45	=45
0.G	-am.	[0.g	do-	1d	-am.	1g	-am.
.	.	.	.	2B-\	.	1d	.
.	.	.	.	2c\	.	.	.
.	.	.	.	1d	.	1r	.
=46	=46	=46	=46	=46	=46	=46	=46
0.r	.	0.g]	.	0.G	.	1.b	Do-
.	.	.	.	.	.	2cc\	.
.	.	.	.	.	.	[1dd	.
=47	=47	=47	=47	=47	=47	=47	=47
0.d	Do-	0.f	-mi-	0.r	.	2dd\]	.
.	.	.	.	.	.	2cc\	.
.	.	.	.	.	.	2a/	.
.	.	.	.	.	.	1b	-mi-
.	.	.	.	.	.	2a/	.
=48	=48	=48	=48	=48	=48	=48	=48
0.c	-mi-	0g	-ne	0e	De-	2cc\	-ne
.	.	.	.	.	.	2dd\	.
.	.	.	.	.	.	1.ee	.
.	.	1g	de-	1e	-us	.	.
.	.	.	.	.	.	2dd\	.
=49	=49	=49	=49	=49	=49	=49	=49
0.B-	-ne	0.d	-us,	1f	rex	0dd	de-
.	.	.	.	1.g	.	.	.
.	.	.	.	.	.	1dd	-us
.	.	.	.	2f\	.	.	.
=50	=50	=50	=50	=50	=50	=50	=50
0.A	de-	0.r	.	0a	.	1.cc	rex
.	.	.	.	.	.	2b\	.
.	.	.	.	1a	ce-	2cc\	ce-
.	.	.	.	.	.	2a/	.
=51	=51	=51	=51	=51	=51	=51	=51
0.G	.	0.g	rex	[0.d	-le-	1b	-le-
.	.	.	.	.	.	2cc\	.
.	.	.	.	.	.	1dd	.
.	.	.	.	.	.	2b\	.
=52	=52	=52	=52	=52	=52	=52	=52
0.D	-us,	0f	.	0.d]	.	2a/	.
.	.	.	.	.	.	2.dd\	.
.	.	.	.	.	.	4cc\	.
.	.	.	.	.	.	2b\	.
.	.	1f	ce-	.	.	1a	.
=53	=53	=53	=53	=53	=53	=53	=53
1r	.	1g	-le-	1G	-stis,	1g	-stis,
[0G	rex	2d\	.	2.B-\	ce-	1r	.
.	.	2.g\	.	.	.	.	.
.	.	.	.	4c\	.	.	.
.	.	.	.	2d\	.	1r	.
.	.	4f\	.	.	.	.	.
.	.	2e\	.	[2g\	-le-	.	.
=54	=54	=54	=54	=54	=54	=54	=54
0.G]	.	0d	-stis,	2g\]	.	0.r	.
.	.	.	.	4f\	.	.	.
.	.	.	.	4e\	.	.	.
.	.	.	.	1g	-stis,	.	.
.	.	1r	.	1r	.	.	.
=55	=55	=55	=55	=55	=55	=55	=55
0.G	ce-	0.g	de-	0d	de-	1.dd	de-
.	.	.	.	.	.	2cc\	.
.	.	.	.	1e	.	1b	.
=56	=56	=56	=56	=56	=56	=56	=56
0F	-le-	0a	-us	0f	-us	1a	.
.	.	.	.	.	.	1cc	.
1G	-stis...	1g	pa-	[1d	.	1b	-us
=57	=57	=57	=57	=57	=57	=57	=57
1r	.	1f	.	1d]	.	2a/	pa-
.	.	.	.	.	.	2dd\	.
0A	pa-	0e	.	0a	pa-	2ee\	.
.	.	.	.	.	.	1cc#i	.
.	.	.	.	.	.	2b\	.
=58	=58	=58	=58	=58	=58	=58	=58
0D	-ter	0.d	-ter	1.a	-ter	0dd	-ter
.	.	.	.	2f\	.	.	.
1D	om-	.	.	1f	om-	2a/	om-
.	.	.	.	.	.	2b\	.
=59	=59	=59	=59	=59	=59	=59	=59
1E	-ni-	0.r	.	1g	-ni-	2.cc\	-ni-
.	.	.	.	.	.	4b\	.
2D\	.	.	.	2a\	.	2.dd\	.
1G	-po-	.	.	2d\	.	.	.
.	.	.	.	.	.	2b\	.
.	.	.	.	2e\	-po-	.	.
.	.	.	.	.	.	4g/	.
2F\	.	.	.	2f\	.	2a/	.
=60	=60	=60	=60	=60	=60	=60	=60
1G	.	0.r	.	1d	-tens,	2g/	.
.	.	.	.	.	.	1dd	-po-
2B-\	.	.	.	1r	.	.	.
2c\	.	.	.	.	.	2cc\	.
2.d\	.	.	.	1r	.	2b-i\	.
.	.	.	.	.	.	[2a/	.
4c\	.	.	.	.	.	.	.
=61	=61	=61	=61	=61	=61	=61	=61
2A\	.	0.r	.	0.r	.	4a/]	.
.	.	.	.	.	.	4f/	.
2B-\	.	.	.	.	.	2.g/	.
2.c\	.	.	.	.	.	.	.
.	.	.	.	.	.	4f/	.
.	.	.	.	.	.	4e/	.
4B-\	.	.	.	.	.	4d/	.
2G\	.	.	.	.	.	2b-\	.
2F\	.	.	.	.	.	4a/	.
.	.	.	.	.	.	[4dd\	.
=62	=62	=62	=62	=62	=62	=62	=62
1B-	.	0.r	.	1d	om-	4dd\]	.
.	.	.	.	.	.	4cc\	.
.	.	.	.	.	.	4b-i\	.
.	.	.	.	.	.	8a/L	.
.	.	.	.	.	.	8g/J	.
1A	.	.	.	1c	-ni-	2.f#i/	.
.	.	.	.	.	.	4e/	.
[1G	.	.	.	2d\	-po-	1g	-tens.
.	.	.	.	4e\	.	.	.
.	.	.	.	[4g\	.	.	.
=63	=63	=63	=63	=63	=63	=63	=63
2G\]	.	0.r	.	4g\]	.	0.r	.
.	.	.	.	4f\	.	.	.
2F\	.	.	.	2d\	.	.	.
2G\	.	.	.	4e-i\	.	.	.
.	.	.	.	4.d\	.	.	.
2D\	.	.	.	.	.	.	.
.	.	.	.	8c\	.	.	.
.	.	.	.	4B-\	.	.	.
1E-i	.	.	.	2.c\	.	.	.
.	.	.	.	4B-\	.	.	.
=64	=64	=64	=64	=64	=64	=64	=64
0.D	-tens.	0.r	.	1d	-tens.	0.r	.
.	.	.	.	1r	.	.	.
.	.	.	.	2A/	Do-	.	.
.	.	.	.	2B-\	.	.	.
=65	=65	=65	=65	=65	=65	=65	=65
0.r	.	0.r	.	2A/	.	2a/	Do-
.	.	.	.	2d\	.	2b-i\	.
.	.	.	.	4c\	.	2a/	.
.	.	.	.	2d\	.	.	.
.	.	.	.	.	.	4dd\	.
.	.	.	.	4f\	.	2dd\	.
.	.	.	.	2e\	.	.	.
.	.	.	.	.	.	4cc\	.
.	.	.	.	2d\	.	4dd\	.
.	.	.	.	.	.	[4b-i\	.
=66	=66	=66	=66	=66	=66	=66	=66
0.r	.	0.r	.	4B-\	.	4b-\]	.
.	.	.	.	2c\	.	4g/	.
.	.	.	.	.	.	4a/	.
.	.	.	.	4G/	.	4g/	.
.	.	.	.	2A/	.	4e/	.
.	.	.	.	.	.	4f/	.
.	.	.	.	4G/	.	2g/	.
.	.	.	.	4B-\	.	.	.
.	.	.	.	4A/	.	4f/	.
.	.	.	.	2d\	.	4d/	.
.	.	.	.	.	.	2e/	.
.	.	.	.	4c\	.	.	.
=67	=67	=67	=67	=67	=67	=67	=67
0.r	.	[0.G	u-	2d\	.	2d/	-mi-
.	.	.	.	2e\	.	2.g/	-ne
.	.	.	.	2d\	-mi-	.	.
.	.	.	.	.	.	4f/	.
.	.	.	.	2.g\	-ne	4e/	.
.	.	.	.	.	.	4d/	.
.	.	.	.	.	.	1d	.
.	.	.	.	4f\	.	.	.
.	.	.	.	4e\	.	.	.
.	.	.	.	4d\	.	.	.
=68	=68	=68	=68	=68	=68	=68	=68
0.r	.	1G]	.	2d\	.	2r	.
.	.	.	.	2r	.	2g/	fi-
.	.	1A	-ni-	1c	fi-	2e/	.
.	.	.	.	.	.	2f/	.
.	.	1B-	.	2d\	-li	1g	-li
.	.	.	.	2e\	.	.	.
=69	=69	=69	=69	=69	=69	=69	=69
0.F	Do-	[0.c	-ge-	1.f	u-	0a	u-
.	.	.	.	2g\	.	.	.
.	.	.	.	[1a	-ni-	1cc	-ni-
=70	=70	=70	=70	=70	=70	=70	=70
0A	-mi-	0c]	.	2a\]	.	1.cc	-ge-
.	.	.	.	2g\	.	.	.
.	.	.	.	1e	-ge-	.	.
.	.	.	.	.	.	2b\	.
1F	-ne...	1c	-ni-	1f	-ni-	1a	-ni-
=71	=71	=71	=71	=71	=71	=71	=71
2.G\	u-	1B-	-te	1d	-te	1g	-te
4F\	.	.	.	.	.	.	.
2E\	.	2c\	Ie-	2e\	Ie-	2r	.
2D\	.	1d	.	2f\	.	2a/	Ie-
1G	-ni-	.	.	4d\	.	2b-i\	.
.	.	.	.	2g\	.	.	.
.	.	[2G/	.	.	.	[2dd\	.
.	.	.	.	4f\	.	.	.
=72	=72	=72	=72	=72	=72	=72	=72
2B-\	-ge-	2G/]	.	2g\	.	4dd\]	.
.	.	.	.	.	.	4b-i\	.
2A\	.	2F/	.	2.a\	.	2cc\	.
1d	-ni-	2G/	.	.	.	2b-i\	.
.	.	.	.	4g\	.	.	.
.	.	2B-\	.	2g\	.	2g/	.
1c	-te	1A	.	2e\	.	2cc\	.
.	.	.	.	2f\	.	2a/	.
=73	=73	=73	=73	=73	=73	=73	=73
0d	Ie-	0.G	-su.	1g	-su	2.b-i\	-su
.	.	.	.	.	.	4cc\	.
.	.	.	.	2r	.	1dd	.
.	.	.	.	2d\	Chri-	.	.
1B-	-su	.	.	4e\	.	2r	.
.	.	.	.	2d\	.	.	.
.	.	.	.	.	.	2g/	Chri-
.	.	.	.	8c\L	.	.	.
.	.	.	.	8B-\J	.	.	.
=74	=74	=74	=74	=74	=74	=74	=74
2c\	Chri-	0.r	.	2A/	.	2a/	.
1d	.	.	.	2B-\	.	2f/	.
.	.	.	.	2G/	.	2.b-\	.
2B-\	.	.	.	2d\	.	.	.
.	.	.	.	.	.	8a/L	.
.	.	.	.	.	.	8g/J	.
1A	.	.	.	1c	-ste.	2.f#i/	.
.	.	.	.	.	.	4e/	.
=75	=75	=75	=75	=75	=75	=75	=75
0G	-ste.	[0.d	Do-	2r	.	1g	-ste.
.	.	.	.	2d\	Do-	.	.
.	.	.	.	1B-	.	1r	.
1D	Do-	.	.	1A	.	2f/	Do-
.	.	.	.	.	.	2a/	.
=76	=76	=76	=76	=76	=76	=76	=76
1G	.	0.d]	.	2.B-\	.	2g/	.
.	.	.	.	.	.	2b-i\	.
.	.	.	.	4c\	.	.	.
2F\	.	.	.	2d\	.	2a/	.
1B-	.	.	.	1G	.	1g	.
2A\	-mi-	.	.	2A/	-mi-	2f/	-mi-
=77	=77	=77	=77	=77	=77	=77	=77
1G	-ne	[0.d	-mi-	1B-	-ne	2g/	-ne
.	.	.	.	.	.	2.dd\	de-
1F	.	.	.	1A	.	.	.
.	.	.	.	.	.	4cc\	.
.	.	.	.	.	.	2a/	.
1G	.	.	.	2G/	.	2b-i\	.
.	.	.	.	2B-\	.	2g/	.
=78	=78	=78	=78	=78	=78	=78	=78
0.D	.	0.d]	.	1A	.	0f#	.
.	.	.	.	2r	.	.	.
.	.	.	.	1A	de-	.	.
.	.	.	.	.	.	1f#i	-us
.	.	.	.	2A/	-us	.	.
=79	=79	=79	=79	=79	=79	=79	=79
1r	.	0.G	-ne	2B-\	a-	1.g	a-
.	.	.	.	2c\	.	.	.
1r	.	.	.	1.d	.	.	.
.	.	.	.	.	.	2a/	.
1G	de-	.	.	.	.	1b	.
.	.	.	.	[2d\	-gnus	.	.
=80	=80	=80	=80	=80	=80	=80	=80
1G	-us	1r	.	2d\]	.	1b	-gnus
.	.	.	.	2e\	.	.	.
1F	a-	1r	.	1f	.	1a	.
1G	.	1d	a-	1d	.	2b\	de-
.	.	.	.	.	.	2g/	.
=81	=81	=81	=81	=81	=81	=81	=81
0D	-gnus	0d	-gnus	2f\	de-	1a	.
.	.	.	.	2g\	.	.	.
.	.	.	.	1a	.	2dd\	.
.	.	.	.	.	.	2.dd\	.
1D	de-	1d	de-	1f	.	.	.
.	.	.	.	.	.	4cc\	.
.	.	.	.	.	.	2b\	.
=82	=82	=82	=82	=82	=82	=82	=82
1F	.	1c	.	1f	.	1a	.
0G	-i	0B-	-i,	[0d	-i	1b-i	.
.	.	.	.	.	.	1g	-i,
=83	=83	=83	=83	=83	=83	=83	=83
0D	fi-	1A	fi-	0d]	.	2.f/	fi-
.	.	.	.	.	.	4g/	.
.	.	1f	.	.	.	1a	.
2G\	.	2e\	.	1r	.	2g/	.
2F\	.	[2d\	.	.	.	2a/	.
=84	=84	=84	=84	=84	=84	=84	=84
2G\	.	2d\]	.	1g	fi-	2b\	.
2E\	.	2c\	.	.	.	2g/	.
1D	.	1d	.	2.f\	-li-	2.a/	.
.	.	.	.	8e\L	.	4b\	.
.	.	.	.	8d\J	.	.	.
1A	-li-	2e\	-li-	2.c\	.	1cc	-li-
.	.	2f\	.	.	.	.	.
.	.	.	.	8B-\L	.	.	.
.	.	.	.	8c\J	.	.	.
=85	=85	=85	=85	=85	=85	=85	=85
1G	-us	1g	-us	2d\	-us	2b\	-us
.	.	.	.	2r	.	2dd\	.
1B-	pa-	1d	pa-	2G/	pa-	2r	.
.	.	.	.	2d\	.	2g/	pa-
[1A	.	2e\	.	2c\	.	2.a/	.
.	.	[2c\	.	2e\	.	.	.
.	.	.	.	.	.	4g/	.
=86	=86	=86	=86	=86	=86	=86	=86
2A\]	.	2c\]	.	2f\	.	2a/	.
1.G	.	1d	.	1g	.	2.b\	.
.	.	.	.	.	.	4g/	.
.	.	2B-\	.	1d	.	2.g/	.
1D	.	1A	.	.	.	.	.
.	.	.	.	.	.	4f#i/	.
.	.	.	.	2d\	.	4f#i/	.
.	.	.	.	.	.	4e/	.
=87	=87	=87	=87	=87	=87	=87	=87
1r	.	0.Gl	-tris.	2.B-\	.	0.gl	-tris.
.	.	.	.	4c\	.	.	.
0Gl	-tris.	.	.	0dl	-tris.	.	.
!!LO:LB:i:g=z
=88||	=88||	=88||	=88||	=88||	=88||	=88||	=88||
*>B	*>B	*>B	*>B	*>B	*>B	*>B	*>B
*clefF4	*	*clefGv2	*	*clefGv2	*	*clefG2	*
*k[b-]	*	*k[b-]	*	*k[b-]	*	*k[]	*
*M2/1	*	*M2/1	*	*M2/1	*	*M2/1	*
*met(C)	*	*met(C)	*	*met(C)	*	*met(C)	*
*MM480	*MM480	*MM480	*MM480	*MM480	*MM480	*MM480	*MM480
!!section: Qui tollis
!!!OMD: Qui tollis
0r	.	0r	.	[0G	Qui	0g	Qui
=89.	=89.	=89.	=89.	=89.	=89.	=89.	=89.
0r	.	0r	.	0G]	.	1d	tol-
.	.	.	.	.	.	[1g	.
=90	=90	=90	=90	=90	=90	=90	=90
0r	.	0r	.	0G	tol-	2g/]	.
.	.	.	.	.	.	2f/	.
.	.	.	.	.	.	2e/	.
.	.	.	.	.	.	2d/	.
=91.	=91.	=91.	=91.	=91.	=91.	=91.	=91.
0r	.	0r	.	0G	-lis	1d	-lis
.	.	.	.	.	.	1g	pec-
=92	=92	=92	=92	=92	=92	=92	=92
0r	.	0r	.	0A	pec-	1e	-ca-
.	.	.	.	.	.	1f	.
=93.	=93.	=93.	=93.	=93.	=93.	=93.	=93.
0r	.	0r	.	0G	.	1g	.
.	.	.	.	.	.	1b-i	.
=94	=94	=94	=94	=94	=94	=94	=94
0r	.	0r	.	0F	-ca-	1.a	.
.	.	.	.	.	.	2g/	.
=95.	=95.	=95.	=95.	=95.	=95.	=95.	=95.
0r	.	0r	.	0G	-ta	2g/	-ta
.	.	.	.	.	.	2r	.
.	.	.	.	.	.	[1dd	mun-
=96	=96	=96	=96	=96	=96	=96	=96
0r	.	0r	.	0G	mun-	1dd]	.
.	.	.	.	.	.	1b	.
=97.	=97.	=97.	=97.	=97.	=97.	=97.	=97.
0r	.	0r	.	1A	.	1cc	.
.	.	.	.	[1d	.	2b\	.
.	.	.	.	.	.	[2a/	.
=98	=98	=98	=98	=98	=98	=98	=98
0r	.	0r	.	1d]	.	2a/]	.
.	.	.	.	.	.	2f/	.
.	.	.	.	1B-	.	1g	.
=99.	=99.	=99.	=99.	=99.	=99.	=99.	=99.
0r	.	0r	.	1A	-di,	1a	-di
.	.	.	.	2r	.	1f	.
.	.	.	.	2A/	mi-	.	.
=100	=100	=100	=100	=100	=100	=100	=100
0r	.	0r	.	2B-\	-se-	2d/	mi-
.	.	.	.	2A/	.	2e/	.
.	.	.	.	2B-\	-re-	2d/	.
.	.	.	.	2G/	.	2g/	-se-
=101.	=101.	=101.	=101.	=101.	=101.	=101.	=101.
0r	.	0r	.	1A	-re	2e/	-re-
.	.	.	.	.	.	2f/	.
.	.	.	.	2G/	no-	[1g	-re
.	.	.	.	[2B-\	.	.	.
=102	=102	=102	=102	=102	=102	=102	=102
0r	.	0r	.	2B-\]	.	2g/]	.
.	.	.	.	2c\	.	2a/	no-
.	.	.	.	2B-\	.	2g/	.
.	.	.	.	2c\	.	2a/	.
=103.	=103.	=103.	=103.	=103.	=103.	=103.	=103.
0r	.	0r	.	1d	.	1b	.
.	.	.	.	1A	.	2.cc\	.
.	.	.	.	.	.	4b\	.
=104	=104	=104	=104	=104	=104	=104	=104
0r	.	0r	.	1c	.	2.a/	.
.	.	.	.	.	.	4g/	.
.	.	.	.	1B-	.	[1g	.
=105.	=105.	=105.	=105.	=105.	=105.	=105.	=105.
0r	.	0r	.	0A	.	2g/]	.
.	.	.	.	.	.	2f#i/	.
.	.	.	.	.	.	2f#i/	.
.	.	.	.	.	.	2e/	.
=106	=106	=106	=106	=106	=106	=106	=106
0r	.	0r	.	[0G	-bis.	0g	-bis.
=107.	=107.	=107.	=107.	=107.	=107.	=107.	=107.
0r	.	0r	.	0G_	.	0r	.
=108	=108	=108	=108	=108	=108	=108	=108
0r	.	0r	.	0G_	.	0g	Qui
=109.	=109.	=109.	=109.	=109.	=109.	=109.	=109.
0G	-Qui	0r	.	0G]	.	1d	tol-
.	.	.	.	.	.	1g	.
=110	=110	=110	=110	=110	=110	=110	=110
1D	tol-	0r	.	0r	.	2f/	.
.	.	.	.	.	.	2a/	.
1G	.	.	.	.	.	2g/	.
.	.	.	.	.	.	2b-\	.
=111.	=111.	=111.	=111.	=111.	=111.	=111.	=111.
2F\	.	0r	.	0r	.	2a/	.
2A\	.	.	.	.	.	2f/	.
2G\	.	.	.	.	.	1g	.
2B-\	.	.	.	.	.	.	.
=112	=112	=112	=112	=112	=112	=112	=112
2A\	.	0r	.	0r	.	1a	-lis
2F\	.	.	.	.	.	.	.
1G	.	.	.	.	.	1d	.
=113.	=113.	=113.	=113.	=113.	=113.	=113.	=113.
1A	-lis	0r	.	0r	.	2r	.
.	.	.	.	.	.	1a	pec-
1D	.	.	.	.	.	.	.
.	.	.	.	.	.	2b\	.
=114	=114	=114	=114	=114	=114	=114	=114
2r	.	0r	.	0r	.	1cc	.
1A	pec-	.	.	.	.	.	.
.	.	.	.	.	.	2a/	-ca-
2B-\	.	.	.	.	.	2dd\	.
=115.	=115.	=115.	=115.	=115.	=115.	=115.	=115.
1c	.	0r	.	0r	.	2cc\	.
.	.	.	.	.	.	1a	.
2A\	-ca-	.	.	.	.	.	.
2d\	.	.	.	.	.	2b-i\	.
=116	=116	=116	=116	=116	=116	=116	=116
2c\	.	0r	.	0r	.	1a	-ta
1A	.	.	.	.	.	.	.
.	.	.	.	.	.	2f/	mun-
2B-\	.	.	.	.	.	2g/	.
=117.	=117.	=117.	=117.	=117.	=117.	=117.	=117.
1A	-ta	0r	.	0r	.	2a/	.
.	.	.	.	.	.	1cc	.
2F\	mun-	.	.	.	.	.	.
2G\	.	.	.	.	.	2b\	.
=118	=118	=118	=118	=118	=118	=118	=118
2A\	.	0r	.	0r	.	2cc\	.
1c	.	.	.	.	.	2a/	.
.	.	.	.	.	.	1g	.
2B-\	.	.	.	.	.	.	.
=119.	=119.	=119.	=119.	=119.	=119.	=119.	=119.
2c\	.	0r	.	0r	.	2a/	.
2A\	.	.	.	.	.	2f/	.
2G\	.	.	.	.	.	2g/	.
2r	.	.	.	.	.	2b-i\	.
=120	=120	=120	=120	=120	=120	=120	=120
2A\	.	0r	.	0r	.	2a/	.
2F\	.	.	.	.	.	2r	.
2G\	.	.	.	.	.	2d/	.
2B-\	.	.	.	.	.	2g/	.
=121.	=121.	=121.	=121.	=121.	=121.	=121.	=121.
2A\	.	0r	.	0r	.	2f/	.
4G\	.	.	.	.	.	4e/	.
4F\	.	.	.	.	.	4d/	.
1E	.	.	.	.	.	2.c#i/	.
.	.	.	.	.	.	4B/	.
=122	=122	=122	=122	=122	=122	=122	=122
1D	-di,	0r	.	0r	.	[0d	-di
1r	.	.	.	.	.	.	.
=123.	=123.	=123.	=123.	=123.	=123.	=123.	=123.
1.D	su-	0r	.	0r	.	0d]	.
2E\	.	.	.	.	.	.	.
=124	=124	=124	=124	=124	=124	=124	=124
1F	-sci-	0r	.	1.d	su-	0r	.
1G	.	.	.	.	.	.	.
.	.	.	.	2e\	.	.	.
=125.	=125.	=125.	=125.	=125.	=125.	=125.	=125.
1A	.	0r	.	1f	-sci-	0r	.
1G	.	.	.	[1g	.	.	.
=126	=126	=126	=126	=126	=126	=126	=126
0c	.	0r	.	2g\]	.	0r	.
.	.	.	.	2a\	.	.	.
.	.	.	.	2g\	.	.	.
.	.	.	.	2e\	.	.	.
=127.	=127.	=127.	=127.	=127.	=127.	=127.	=127.
1.d	.	0r	.	2f\	.	0r	.
.	.	.	.	2g\	.	.	.
.	.	.	.	1a	.	.	.
2c\	.	.	.	.	.	.	.
=128	=128	=128	=128	=128	=128	=128	=128
2B-\	.	0r	.	1d	.	0r	.
2G\	.	.	.	.	.	.	.
1B-	.	.	.	[1g	.	.	.
=129.	=129.	=129.	=129.	=129.	=129.	=129.	=129.
0A	.	0r	.	2g\]	.	0r	.
.	.	.	.	2f#i\	.	.	.
.	.	.	.	2f#i\	.	.	.
.	.	.	.	2e\	.	.	.
=130	=130	=130	=130	=130	=130	=130	=130
[0G	-pe	[0G	-De-	0g	-pe	0d	de-
=131.	=131.	=131.	=131.	=131.	=131.	=131.	=131.
0G]	.	0G_	.	0r	.	1e	-pre-
.	.	.	.	.	.	1d	.
=132	=132	=132	=132	=132	=132	=132	=132
0r	.	0G_	.	0d	de-	1.g	-ca-
.	.	.	.	.	.	2f/	.
=133.	=133.	=133.	=133.	=133.	=133.	=133.	=133.
0r	.	0G]	.	1e	-pre-	1g	.
.	.	.	.	1d	.	1a	-ti-
=134	=134	=134	=134	=134	=134	=134	=134
0d	de-	[0G	-pre-	0g	-ca-	1.b	-o-
.	.	.	.	.	.	2g/	.
=135.	=135.	=135.	=135.	=135.	=135.	=135.	=135.
1B-	-pre-	0G]	.	0d	.	1g	-nem
1d	.	.	.	.	.	1r	.
=136	=136	=136	=136	=136	=136	=136	=136
1c	-ca-	[0c	-ca-	0e	.	1g	no-
[1A	.	.	.	.	.	2a/	.
.	.	.	.	.	.	[2cc\	.
=137.	=137.	=137.	=137.	=137.	=137.	=137.	=137.
1A]	.	0c_	.	1e	-ti-	2cc\]	.
.	.	.	.	.	.	2b\	.
1c	-ti-	.	.	1e	-o-	1g	.
=138	=138	=138	=138	=138	=138	=138	=138
[0F	-o-	0c_	.	0f	-nem	1a	.
.	.	.	.	.	.	1f	.
=139.	=139.	=139.	=139.	=139.	=139.	=139.	=139.
0F]	.	0c]	.	0f	no-	1.a	.
.	.	.	.	.	.	2b\	.
=140	=140	=140	=140	=140	=140	=140	=140
0A	-nem	[0c	-ti-	0e	.	1.cc	.
.	.	.	.	.	.	2b\	.
=141.	=141.	=141.	=141.	=141.	=141.	=141.	=141.
0F	no-	0c]	.	0f	.	2a/	.
.	.	.	.	.	.	2g/	.
.	.	.	.	.	.	1a	.
=142	=142	=142	=142	=142	=142	=142	=142
0G	-stram,	0B-	-o-	[0d	-stram.	1b-i	.
.	.	.	.	.	.	1g	.
=143.	=143.	=143.	=143.	=143.	=143.	=143.	=143.
0D	.	0A	.	0d_	.	2f#i/	.
.	.	.	.	.	.	1f#i	.
.	.	.	.	.	.	2e/	.
=144	=144	=144	=144	=144	=144	=144	=144
0r	.	[0G	-nem	0d]	.	[0g	-stram.
=145.	=145.	=145.	=145.	=145.	=145.	=145.	=145.
0d	no-	0G_	.	0r	.	0g_	.
=146	=146	=146	=146	=146	=146	=146	=146
1B-	-stram.	0G_	.	0r	.	0g_	.
1c	.	.	.	.	.	.	.
=147.	=147.	=147.	=147.	=147.	=147.	=147.	=147.
0d	.	0G]	.	1.B-	Qui	0g]	.
.	.	.	.	2c\	.	.	.
=148	=148	=148	=148	=148	=148	=148	=148
0G	Qui	0r	.	1d	.	0r	.
.	.	.	.	1g	se-	.	.
=149.	=149.	=149.	=149.	=149.	=149.	=149.	=149.
1D	se-	0r	.	1f	.	0r	.
[1G	.	.	.	[1e	.	.	.
=150	=150	=150	=150	=150	=150	=150	=150
1G]	.	0r	.	2e\]	.	0r	.
.	.	.	.	2d\	.	.	.
1F	-des	.	.	[1d	-des	.	.
=151.	=151.	=151.	=151.	=151.	=151.	=151.	=151.
0E	ad	0r	.	1d]	.	0r	.
.	.	.	.	1c	ad	.	.
=152	=152	=152	=152	=152	=152	=152	=152
0D	dex-	[0d	Qui	1d	dex-	0a	Qui
.	.	.	.	1A	-te-	.	.
=153.	=153.	=153.	=153.	=153.	=153.	=153.	=153.
0G	-te-	0d_	.	0B-	-ram,	0g	.
=154	=154	=154	=154	=154	=154	=154	=154
[0D	-ram,	0d_	.	[0A	.	1.f	se-
.	.	.	.	.	.	2g/	.
=155.	=155.	=155.	=155.	=155.	=155.	=155.	=155.
0D]	.	0d]	.	0A]	.	1a	.
.	.	.	.	.	.	[1dd	.
=156	=156	=156	=156	=156	=156	=156	=156
0r	.	[0d	se-	[0f#	ad	2dd\]	.
.	.	.	.	.	.	2cc\	.
.	.	.	.	.	.	1b	.
=157.	=157.	=157.	=157.	=157.	=157.	=157.	=157.
0r	.	0d]	.	0f#]	.	1.a	.
.	.	.	.	.	.	2g/	.
=158	=158	=158	=158	=158	=158	=158	=158
0d	ad	[0G	-des...	1.g	dex-	0b	-des
.	.	.	.	2f\	.	.	.
=159.	=159.	=159.	=159.	=159.	=159.	=159.	=159.
1B-	dex-	0G]	.	2e\	.	0g	ad
.	.	.	.	2d\	.	.	.
1G	-te-	.	.	1d	-te-	.	.
=160	=160	=160	=160	=160	=160	=160	=160
[0D	-ram...	1r	.	1.f	-ram	0a	dex-
.	.	[1d	mi-	.	.	.	.
.	.	.	.	2g\	.	.	.
=161.	=161.	=161.	=161.	=161.	=161.	=161.	=161.
0D]	.	1d]	.	1a	.	2f/	-te-
.	.	.	.	.	.	2g/	.
.	.	1d	-se-	[1f	pa-	1a	-ram
=162	=162	=162	=162	=162	=162	=162	=162
1r	.	[0d	-re-	2f\]	.	1b-i	pa-
.	.	.	.	2d\	.	.	.
[1D	mi-	.	.	2f\	.	1a	.
.	.	.	.	2g\	.	.	.
=163.	=163.	=163.	=163.	=163.	=163.	=163.	=163.
1D]	.	0d]	.	0a	.	1.dd	.
1D	-se-	.	.	.	.	.	.
.	.	.	.	.	.	2cc\	.
=164	=164	=164	=164	=164	=164	=164	=164
[0F	-re-	[0c	-re,	[0A	-tris,	2a/	.
.	.	.	.	.	.	2b\	.
.	.	.	.	.	.	[1cc	.
=165.	=165.	=165.	=165.	=165.	=165.	=165.	=165.
0F]	.	0c_	.	0A]	.	2cc\]	.
.	.	.	.	.	.	2b\	.
.	.	.	.	.	.	2a/	.
.	.	.	.	.	.	4g/	.
.	.	.	.	.	.	4f/	.
=166	=166	=166	=166	=166	=166	=166	=166
[0A	.	0c_	.	0r	.	0e	-tris,
=167.	=167.	=167.	=167.	=167.	=167.	=167.	=167.
0A]	.	0c]	.	0a	mi-	0r	.
=168	=168	=168	=168	=168	=168	=168	=168
0G	-re	1.B-	mi-	0d	-se-	3%2gV	mi-
.	.	.	.	.	.	3%2d	.
.	.	.	.	.	.	3%2gZ	-se-
.	.	2G/	-se-	.	.	.	.
=169.	=169.	=169.	=169.	=169.	=169.	=169.	=169.
0r	.	1A	-re-	1c	-re-	3%2eV	-re-
.	.	.	.	.	.	3%2f	.
.	.	[1G	.	1d	.	.	.
.	.	.	.	.	.	[3%2gZ	-re
=170	=170	=170	=170	=170	=170	=170	=170
0r	.	1G]	.	1e	.	3%2g]V	.
.	.	.	.	.	.	3%2b-i	no-
.	.	1F	-re	1f	.	.	.
.	.	.	.	.	.	[3%2aZ	.
=171.	=171.	=171.	=171.	=171.	=171.	=171.	=171.
0r	.	0B-	no-	1.d	.	3%2a]V	.
.	.	.	.	.	.	3%2.g	.
.	.	.	.	2c\	.	.	.
.	.	.	.	.	.	3f/Z	.
=172	=172	=172	=172	=172	=172	=172	=172
0r	.	0A	.	0e	-re	3%2.aV	.
.	.	.	.	.	.	3b\	.
.	.	.	.	.	.	3%2ccZ	.
=173.	=173.	=173.	=173.	=173.	=173.	=173.	=173.
0D	no-	1.d	.	1.f	no-	3%2bV	.
.	.	.	.	.	.	3%2.a	.
.	.	2c\	.	2e\	.	.	.
.	.	.	.	.	.	3g/Z	.
=174	=174	=174	=174	=174	=174	=174	=174
0G	.	1B-	.	3%2dV	.	3%2gV	.
.	.	.	.	3c\Z	.	3%2d	.
.	.	1G	.	3%2B-V	.	.	.
.	.	.	.	.	.	3%2eZ	.
.	.	.	.	3c\Z	.	.	.
=175.	=175.	=175.	=175.	=175.	=175.	=175.	=175.
0D	.	0A	.	1d	-bis,	3%2gV	.
.	.	.	.	.	.	3%2.f#i	.
.	.	.	.	1r	.	.	.
.	.	.	.	.	.	3e/Z	.
=176	=176	=176	=176	=176	=176	=176	=176
0d	-bis,	[0G	-bis.	0Bn	no-	0g	-bis.
=177.	=177.	=177.	=177.	=177.	=177.	=177.	=177.
1e	no-	0G]	.	1c	.	0r	.
[1d	.	.	.	1d	.	.	.
=178	=178	=178	=178	=178	=178	=178	=178
1d]	.	0r	.	1G	.	0dd	Quo-
1B-	.	.	.	1g	.	.	.
=179.	=179.	=179.	=179.	=179.	=179.	=179.	=179.
0A	.	0r	.	2a\	.	0cc	.
.	.	.	.	1f#i	.	.	.
.	.	.	.	2e\	.	.	.
=180	=180	=180	=180	=180	=180	=180	=180
0G	-bis.	[0d	Quo-	0g	-bis.	1b	.
.	.	.	.	.	.	[1dd	.
=181.	=181.	=181.	=181.	=181.	=181.	=181.	=181.
0F	Quo-	1d]	.	0r	.	2dd\]	.
.	.	.	.	.	.	2cc\	.
.	.	[1d	-ni-	.	.	1a	.
=182	=182	=182	=182	=182	=182	=182	=182
0G	.	0d]	.	1G	Quo-	2b\	.
.	.	.	.	.	.	2g/	.
.	.	.	.	1B-	.	[1g	.
=183.	=183.	=183.	=183.	=183.	=183.	=183.	=183.
0D	-ni-	0d	-am	0A	-ni-	2g/]	.
.	.	.	.	.	.	2f#i/	.
.	.	.	.	.	.	2f#i/	-ni-
.	.	.	.	.	.	2e/	.
=184	=184	=184	=184	=184	=184	=184	=184
[0d	-am	[0G	.	1.B-	-am	1g	-am
.	.	.	.	.	.	1r	.
.	.	.	.	2c\	.	.	.
=185.	=185.	=185.	=185.	=185.	=185.	=185.	=185.
1d]	.	0G_	.	1d	.	1b	tu
[1d	tu	.	.	1B-	tu	1g	.
=186	=186	=186	=186	=186	=186	=186	=186
0d]	.	0G_	.	1G	so-	1.b	so-
.	.	.	.	1g	-lus	.	.
.	.	.	.	.	.	2cc\	.
=187.	=187.	=187.	=187.	=187.	=187.	=187.	=187.
0d	so-	0G]	.	1.g	san-	0dd	.
.	.	.	.	2f\	.	.	.
=188	=188	=188	=188	=188	=188	=188	=188
[0G	-lus	[0g	tu	2e\	.	0b	.
.	.	.	.	2d\	.	.	.
.	.	.	.	[1d	.	.	.
=189.	=189.	=189.	=189.	=189.	=189.	=189.	=189.
0G]	.	0g]	.	1d]	.	1dd	-lus
.	.	.	.	1B-	.	[1dd	san-
=190	=190	=190	=190	=190	=190	=190	=190
1B-	san-	0g	so-	0G	-ctus.	1dd]	.
1c	.	.	.	.	.	2cc\	.
.	.	.	.	.	.	2b\	.
=191.	=191.	=191.	=191.	=191.	=191.	=191.	=191.
[0d	-ctus.	[0f	.	0r	.	1a	.
.	.	.	.	.	.	[1dd	.
=192	=192	=192	=192	=192	=192	=192	=192
0d_	.	0f]	.	0r	.	2dd\]	.
.	.	.	.	.	.	2cc\	.
.	.	.	.	.	.	1b	.
=193.	=193.	=193.	=193.	=193.	=193.	=193.	=193.
0d]	.	0f	-lus	0r	.	1.a	.
.	.	.	.	.	.	2g/	.
=194	=194	=194	=194	=194	=194	=194	=194
0r	.	[0g	.	[0G	Tu	0g	-ctus.
=195.	=195.	=195.	=195.	=195.	=195.	=195.	=195.
0r	.	0g]	.	0G]	.	1r	.
.	.	.	.	.	.	[1b-	Tu
=196	=196	=196	=196	=196	=196	=196	=196
[0G	Tu	0g	san-	[0d	so-	0b-]	.
=197.	=197.	=197.	=197.	=197.	=197.	=197.	=197.
0G]	.	[0d	-ctus.	1d]	.	0b-i	so-
.	.	.	.	[1g	-lus	.	.
=198	=198	=198	=198	=198	=198	=198	=198
0G	so-	0d]	.	0g]	.	0b-i	-lus
=199.	=199.	=199.	=199.	=199.	=199.	=199.	=199.
[0F	.	0r	.	1c	do-	[0a	do-
.	.	.	.	1d	.	.	.
=200	=200	=200	=200	=200	=200	=200	=200
0F]	.	0r	.	1c	.	0a]	.
.	.	.	.	[1A	.	.	.
=201.	=201.	=201.	=201.	=201.	=201.	=201.	=201.
0F	-lus	0r	.	1A]	.	0a	-mi-
.	.	.	.	1A	-mi-	.	.
=202	=202	=202	=202	=202	=202	=202	=202
[0G	do-	[0g	Tu	1.B-	-nus.	[0d	-nus.
.	.	.	.	2G/	.	.	.
=203.	=203.	=203.	=203.	=203.	=203.	=203.	=203.
0G]	.	1g]	.	2B-\	.	0d]	.
.	.	.	.	2c\	.	.	.
.	.	[1g	so-	1d	.	.	.
=204	=204	=204	=204	=204	=204	=204	=204
0G	-mi-	0g]	.	2e-i\	.	0r	.
.	.	.	.	2.d\	.	.	.
.	.	.	.	4c\	.	.	.
.	.	.	.	2B-\	.	.	.
=205.	=205.	=205.	=205.	=205.	=205.	=205.	=205.
[0D	-nus.	[0f	-lus	1A	.	0d	Tu
.	.	.	.	2r	.	.	.
.	.	.	.	[2A/	Tu	.	.
=206	=206	=206	=206	=206	=206	=206	=206
0D_	.	1f]	.	2A/]	.	0d	so-
.	.	.	.	2B-\	.	.	.
.	.	[1f	al-	2A/	.	.	.
.	.	.	.	[2d\	so-	.	.
=207.	=207.	=207.	=207.	=207.	=207.	=207.	=207.
0D]	.	0f]	.	2d\]	.	0a	-lus
.	.	.	.	2c\	.	.	.
.	.	.	.	1A	.	.	.
=208	=208	=208	=208	=208	=208	=208	=208
0r	.	[0g	.	0G	-lus	1.b	al-
.	.	.	.	.	.	2cc\	.
=209.	=209.	=209.	=209.	=209.	=209.	=209.	=209.
0r	.	1g]	.	1r	.	1dd	.
.	.	[1g	-tis-	[1c	al-	[1ee	-tis-
=210	=210	=210	=210	=210	=210	=210	=210
0r	.	1g]	.	1c]	.	2ee\]	.
.	.	.	.	.	.	2dd\	.
.	.	1f	.	1d	.	[1dd	.
=211.	=211.	=211.	=211.	=211.	=211.	=211.	=211.
0r	.	0e	-si-	0A	.	1dd]	.
.	.	.	.	.	.	1cc#i	-si-
=212	=212	=212	=212	=212	=212	=212	=212
[0G	Tu	[0d	-mus	1B-	-tis-	0dd	-mus,
.	.	.	.	1G	-si-	.	.
=213.	=213.	=213.	=213.	=213.	=213.	=213.	=213.
1G]	.	0d]	.	1.g	-mus	0r	.
[1G	so-	.	.	.	.	.	.
.	.	.	.	4f\	.	.	.
.	.	.	.	4e\	.	.	.
=214	=214	=214	=214	=214	=214	=214	=214
0G]	.	0r	.	1d	.	1b-	Ie-
.	.	.	.	1e	.	1g	.
=215.	=215.	=215.	=215.	=215.	=215.	=215.	=215.
[0F	-lus	0r	.	1d	Ie-	[0a	.
.	.	.	.	2c\	.	.	.
.	.	.	.	2B-\	.	.	.
=216	=216	=216	=216	=216	=216	=216	=216
1F]	.	0r	.	0A	.	0a]	.
[1F	al-	.	.	.	.	.	.
=217.	=217.	=217.	=217.	=217.	=217.	=217.	=217.
0F]	.	0r	.	0f	-su	0a	-su
=218	=218	=218	=218	=218	=218	=218	=218
[0G	-ti-	0r	.	0d	Chri-	0b-i	Chri-
=219.	=219.	=219.	=219.	=219.	=219.	=219.	=219.
1G]	.	0r	.	1.B-	.	0g	-ste,
[1G	-si-	.	.	.	.	.	.
.	.	.	.	2c\	.	.	.
=220	=220	=220	=220	=220	=220	=220	=220
1G]	.	[0g	Ie-	2d\	.	0r	.
.	.	.	.	2e-i\	.	.	.
1F	.	.	.	1d	.	.	.
=221.	=221.	=221.	=221.	=221.	=221.	=221.	=221.
0E-i	-mus	0g]	.	2c\	.	0r	.
.	.	.	.	1c	.	.	.
.	.	.	.	2B-\	.	.	.
=222	=222	=222	=222	=222	=222	=222	=222
[0D	.	[0a	-su	0d	-ste,	0r	.
=223.	=223.	=223.	=223.	=223.	=223.	=223.	=223.
0D]	.	0a]	.	0f	.	0dd	Ie-
=224	=224	=224	=224	=224	=224	=224	=224
0E	Ie-	0g	Chri-	0e	.	1b	-su
.	.	.	.	.	.	1cc	.
=225.	=225.	=225.	=225.	=225.	=225.	=225.	=225.
0D	-su	0f	.	1r	.	0dd	.
.	.	.	.	[1a	Ie-	.	.
=226	=226	=226	=226	=226	=226	=226	=226
[0A	Chri-	[0e	.	0a]	.	0ee	Chri-
=227.	=227.	=227.	=227.	=227.	=227.	=227.	=227.
0A]	.	0e]	.	0a	-su	1.cc#i	.
.	.	.	.	.	.	2b\	.
=228	=228	=228	=228	=228	=228	=228	=228
0B-	-ste.	[0d	-ste.	0f	Chri-	0dd	-ste.
=229.	=229.	=229.	=229.	=229.	=229.	=229.	=229.
[0G	.	0d_	.	0g	-ste.	1r	.
.	.	.	.	.	.	[1dd	Cum
=230	=230	=230	=230	=230	=230	=230	=230
0G_	.	0d_	.	0r	.	1dd]	.
.	.	.	.	.	.	[1b	san-
=231.	=231.	=231.	=231.	=231.	=231.	=231.	=231.
0G]	.	0d]	.	0r	.	1b]	.
.	.	.	.	.	.	1b	-cto
=232	=232	=232	=232	=232	=232	=232	=232
[0d	Cum	0r	.	0f	Cum	0a	spi-
=233.	=233.	=233.	=233.	=233.	=233.	=233.	=233.
1d]	.	[0G	Cum	[0g	san-	0dd	.
[1d	san-	.	.	.	.	.	.
=234	=234	=234	=234	=234	=234	=234	=234
1d]	.	0G]	.	0g]	.	0b	-ri-
1c	.	.	.	.	.	.	.
=235.	=235.	=235.	=235.	=235.	=235.	=235.	=235.
0B-	-cto	0G	san-	0d	-cto	0g	-tu,
=236	=236	=236	=236	=236	=236	=236	=236
[0A	spi-	[0c	.	[0e	spi-	1r	.
.	.	.	.	.	.	[1a	in
=237.	=237.	=237.	=237.	=237.	=237.	=237.	=237.
0A]	.	0c]	.	0e]	.	2a/]	.
.	.	.	.	.	.	2b\	.
.	.	.	.	.	.	1cc	.
=238	=238	=238	=238	=238	=238	=238	=238
0F	-ri-	0c	-cto	0f	-ri-	2dd\	glo-
.	.	.	.	.	.	2.cc\	.
.	.	.	.	.	.	4b\	.
.	.	.	.	.	.	2a/	.
=239.	=239.	=239.	=239.	=239.	=239.	=239.	=239.
0G	-tu,	0B-	spi-	[0d	-tu,	0g	.
=240	=240	=240	=240	=240	=240	=240	=240
0D	.	[0A	-ri-	0d]	.	1a	.
.	.	.	.	.	.	[1f	.
=241.	=241.	=241.	=241.	=241.	=241.	=241.	=241.
1r	.	0A]	.	0c	in	2f/]	.
.	.	.	.	.	.	2g/	.
1F	in	.	.	.	.	1a	-ri-
=242	=242	=242	=242	=242	=242	=242	=242
1G	glo-	[0G	-tu,	1B-	glo-	2d/	-a
.	.	.	.	.	.	2r	.
[1B-	.	.	.	1d	-ri-	[1dd	de-
=243.	=243.	=243.	=243.	=243.	=243.	=243.	=243.
2B-\]	.	0G]	.	1G	-a	2dd\]	.
2c\	.	.	.	.	.	2cc\	.
1d	.	.	.	[1g	de-	2b-i\	-i
.	.	.	.	.	.	2a/	.
=244	=244	=244	=244	=244	=244	=244	=244
1G	-ri-	0r	.	2g\]	.	2.b-i\	pa-
.	.	.	.	2f\	.	.	.
.	.	.	.	.	.	4cc\	.
1B-	-a	.	.	1d	-i	4b-i\	.
.	.	.	.	.	.	4a/	.
.	.	.	.	.	.	2g/	.
=245.	=245.	=245.	=245.	=245.	=245.	=245.	=245.
0A	de-	0r	.	2c\	pa-	2a/	.
.	.	.	.	1c	.	2e/	.
.	.	.	.	.	.	2.f#i/	.
.	.	.	.	2B-\	.	.	.
.	.	.	.	.	.	4e/	.
=246	=246	=246	=246	=246	=246	=246	=246
[0G	-i	0d	in	1d	-tris,	[0g	-tris,
.	.	.	.	1r	.	.	.
=247.	=247.	=247.	=247.	=247.	=247.	=247.	=247.
0G]	.	0d	glo-	1.B-	in	0g_	.
.	.	.	.	2c\	.	.	.
=248	=248	=248	=248	=248	=248	=248	=248
0r	.	[0G	.	1d	glo-	0g_	.
.	.	.	.	2.e-i\	.	.	.
.	.	.	.	4d\	.	.	.
=249.	=249.	=249.	=249.	=249.	=249.	=249.	=249.
0r	.	0G]	.	1d	.	0g]	.
.	.	.	.	1g	.	.	.
=250	=250	=250	=250	=250	=250	=250	=250
[0D	pa-	[0d	-ri-	1f	-ri-	0r	.
.	.	.	.	[1a	-a	.	.
=251.	=251.	=251.	=251.	=251.	=251.	=251.	=251.
1D]	.	1d]	.	1a]	.	0r	.
[1G	.	[1d	-a	[1g	.	.	.
=252	=252	=252	=252	=252	=252	=252	=252
0G]	.	0d]	.	0g]	.	1b	de-
.	.	.	.	.	.	1g	-i
=253.	=253.	=253.	=253.	=253.	=253.	=253.	=253.
0D	-tris.	0d	de-	1f	de-	1.a	pa-
.	.	.	.	1d	-i	.	.
.	.	.	.	.	.	2b\	.
=254	=254	=254	=254	=254	=254	=254	=254
1r	.	[0c	-i	1.e	pa-	1.cc	.
[1A	A-	.	.	.	.	.	.
.	.	.	.	2g\	.	2b\	.
=255.	=255.	=255.	=255.	=255.	=255.	=255.	=255.
1A]	.	1c]	.	2f\	.	1cc	.
.	.	.	.	2e\	.	.	.
1G	.	[1B-	pa-	2g\	-tris.	1dd	-tris.
.	.	.	.	2r	.	.	.
=256	=256	=256	=256	=256	=256	=256	=256
0d	.	0B-]	.	1G	A-	2r	.
.	.	.	.	.	.	2.g/	A-
.	.	.	.	1d	.	.	.
.	.	.	.	.	.	4f/	.
.	.	.	.	.	.	2g/	.
=257.	=257.	=257.	=257.	=257.	=257.	=257.	=257.
0c	.	0A	.	2e\	.	1a	.
.	.	.	.	1f	.	.	.
.	.	.	.	.	.	1cc	.
.	.	.	.	2e\	.	.	.
=258	=258	=258	=258	=258	=258	=258	=258
0d	.	1G	-tris.	0g	.	1b	.
.	.	1B-	A-	.	.	[1dd	.
=259.	=259.	=259.	=259.	=259.	=259.	=259.	=259.
[0D	-men,	1A	.	0a	.	2dd\]	.
.	.	.	.	.	.	2cc\	.
.	.	[1d	.	.	.	2b\	.
.	.	.	.	.	.	2a/	.
=260	=260	=260	=260	=260	=260	=260	=260
0D]	.	2d\]	.	[0f	.	0a	.
.	.	2c\	.	.	.	.	.
.	.	[1d	.	.	.	.	.
=261.	=261.	=261.	=261.	=261.	=261.	=261.	=261.
0r	.	1d]	.	1f]	.	0dd	.
.	.	[1G	.	[1g	.	.	.
=262	=262	=262	=262	=262	=262	=262	=262
0d	a-	2G/]	.	0g]	.	0b-	.
.	.	2F/	.	.	.	.	.
.	.	1G	.	.	.	.	.
=263.	=263.	=263.	=263.	=263.	=263.	=263.	=263.
1.c	.	1A	.	1e	.	0a	.
.	.	[1F	.	2.f\	.	.	.
2B-\	.	.	.	.	.	.	.
.	.	.	.	4e\	.	.	.
=264	=264	=264	=264	=264	=264	=264	=264
1A	.	1F]	.	1c	.	1f	.
1G	.	1B-	.	2d\	.	1g	.
.	.	.	.	2e\	.	.	.
=265.	=265.	=265.	=265.	=265.	=265.	=265.	=265.
1.F	.	1A	.	0f	.	1.a	.
.	.	[1c	.	.	.	.	.
2E\	.	.	.	.	.	2g/	.
=266	=266	=266	=266	=266	=266	=266	=266
1F	.	1c]	.	1f	.	1a	.
1G	.	1B-	.	[1d	.	2b-i\	.
.	.	.	.	.	.	2g/	.
=267.	=267.	=267.	=267.	=267.	=267.	=267.	=267.
0D	.	0A	.	1d]	.	2a/	.
.	.	.	.	.	.	1f#i	.
.	.	.	.	1d	-men,	.	.
.	.	.	.	.	.	2e/	.
=268	=268	=268	=268	=268	=268	=268	=268
3%2.E-\V	.	0G	.	0r	.	1g	.
3F\	.	.	.	.	.	1b-i	.
3%2G\Z	.	.	.	.	.	.	.
=269.	=269.	=269.	=269.	=269.	=269.	=269.	=269.
0D	.	0F	.	1d	a-	2a/	.
.	.	.	.	.	.	1dd	.
.	.	.	.	1f	.	.	.
.	.	.	.	.	.	2cc\	.
=270	=270	=270	=270	=270	=270	=270	=270
0E-i	.	0G	.	1B-	.	3%4b-i/V	.
.	.	.	.	1c	.	.	.
.	.	.	.	.	.	3a/	.
.	.	.	.	.	.	3g/Z	.
=271.	=271.	=271.	=271.	=271.	=271.	=271.	=271.
0D	.	0A	.	0d	.	3%2f#iV	.
.	.	.	.	.	.	3g/Z	.
.	.	.	.	.	.	3%2f#iV	.
.	.	.	.	.	.	3e/Z	.
=272	=272	=272	=272	=272	=272	=272	=272
0r	.	[0Gl	-men.	[0dl	-men.	[0gl	-men.
=273.	=273.	=273.	=273.	=273.	=273.	=273.	=273.
0Gl	-men.	0G]	.	0d]	.	0g]	.
==	==	==	==	==	==	==	==
*-	*-	*-	*-	*-	*-	*-	*-
!!!RDF**kern: l=long note in original notation
!!!RDF**kern: i=editorial accidental
!!!RDF**kern: V=start of tuplet marker
!!!RDF**kern: Z=end of tuplet marker
!!!ENC:	Planchart/Rodin
!!!END:	2013/12/07/
!!!EED:	Jesse Rodin
!!!EEV:	2013/12/09/
!!!ONB:	Translated from SCORE and edited on 2013/12/09/ by Craig Sapp
!!muse2ps: T^@{OPR}^u^@{ONM}{. }@{OTL}^C^@{COM}^i2I150v85,85,85,130c180
